ui/StatusQ/src/assets/img/icons/flash.svg

<svg fill="none" height="24" viewBox="0 0 24 24" width="24" xmlns="http://www.w3.org/2000/svg"><path clip-rule="evenodd" d="m12.3821 11.0003c-.2846-.3179-.4203-.7419-.3732-1.16599l.3029-2.72546c.0539-.48514-.5481-.7521-.8715-.3865l-4.37558 4.94635c-.28547.3227-.05636.8313.3745.8313h1.94326c1.49002 0 2.64922 1.2951 2.48472 2.776l-.1795 1.6151c-.0539.4851.5481.7521.8715.3865l4.3756-4.9464c.2855-.3227.0563-.8312-.3745-.8312h-3.0606c-.4266 0-.8331-.1817-1.1176-.4997zm-1.8366 10.8175c-.3234.3656-.92536.0987-.87146-.3865l.70236-6.3209c.0658-.5924-.3979-1.1104-.99392-1.1104h-4.71793c-.64629 0-.98996-.7629-.56175-1.247l9.3512-10.57091c.3234-.3656.9254-.09864.8715.3865l-.7641 6.87615c-.0329.29618.199.55521.497.55521h5.2765c.6463 0 .99.76285.5618 1.24695z" fill="#000" fill-rule="evenodd"/></svg>

<svg width="24" height="24" viewBox="0 0 24 24" fill="none" xmlns="http://www.w3.org/2000/svg">
<path fill-rule="evenodd" clip-rule="evenodd" d="M12.3821 11.0003C12.0975 10.6824 11.9618 10.2584 12.0089 9.83431L12.3118 7.10885C12.3657 6.62371 11.7637 6.35675 11.4403 6.72235L7.06472 11.6687C6.77925 11.9914 7.00836 12.5 7.43922 12.5H9.38248C10.8725 12.5 12.0317 13.7951 11.8672 15.276L11.6877 16.8911C11.6338 17.3762 12.2358 17.6432 12.5592 17.2776L16.9348 12.3312C17.2203 12.0085 16.9911 11.5 16.5603 11.5H13.4997C13.0731 11.5 12.6666 11.3183 12.3821 11.0003ZM10.5455 21.8178C10.2221 22.1834 9.62014 21.9165 9.67404 21.4313L10.3764 15.1104C10.4422 14.518 9.9785 14 9.38248 14H4.66455C4.01826 14 3.67459 13.2371 4.1028 12.753L13.454 2.18209C13.7774 1.81649 14.3794 2.08345 14.3255 2.56859L13.5614 9.44474C13.5285 9.74092 13.7604 9.99995 14.0584 9.99995H19.3349C19.9812 9.99995 20.3249 10.7628 19.8967 11.2469L10.5455 21.8178Z" fill="black"/>
</svg>
